X:1
T:A Dandy for Nineteen Years Old
M:3/4
L:1/4
K:F
 G| A2 A/2A/2| A F z| E G E/2 G/2-| G z A| B/2 B3/2 B| B A G| F G/2 ^G3/2|\
 A z/2 B/2 =B| c c c/2 f/2-| f f f/2| f/2-| e d c| d A/2 =B3/2| c z c/2c/2|\
 c G A/2 B/2-|B/2-E/2 E E| F3-| F z||
